img/icon/header-user-nav/search.svg

<svg width="16" height="17" viewBox="0 0 16 17" fill="none" xmlns="http://www.w3.org/2000/svg">
<path d="M15.7 14.6569L12.6 11.5569C13.5 10.3569 14 8.95693 14 7.35693C14 3.45693 10.9 0.356934 7 0.356934C3.1 0.356934 0 3.45693 0 7.35693C0 11.2569 3.1 14.3569 7 14.3569C8.6 14.3569 10 13.8569 11.2 12.9569L14.3 16.0569C14.5 16.2569 14.7 16.3569 15 16.3569C15.6 16.3569 16 15.9569 16 15.3569C16 15.1569 15.9 14.8569 15.7 14.6569ZM2 7.35693C2 4.55693 4.2 2.35693 7 2.35693C9.8 2.35693 12 4.55693 12 7.35693C12 10.1569 9.8 12.3569 7 12.3569C4.2 12.3569 2 10.1569 2 7.35693Z" fill="black"/>
</svg>

<svg width="16" height="17" fill="none" xmlns="http://www.w3.org/2000/svg"><path d="m15.7 14.66-3.1-3.1c.9-1.2 1.4-2.6 1.4-4.2 0-3.9-3.1-7-7-7s-7 3.1-7 7 3.1 7 7 7c1.6 0 3-.5 4.2-1.4l3.1 3.1c.2.2.4.3.7.3.6 0 1-.4 1-1 0-.2-.1-.5-.3-.7ZM2 7.36c0-2.8 2.2-5 5-5s5 2.2 5 5-2.2 5-5 5-5-2.2-5-5Z" fill="#000"/></svg>
